src/assets/images/discord.svg

<svg width="40" height="31" viewBox="0 0 40 31" fill="currentColor" xmlns="http://www.w3.org/2000/svg">
<path d="M33.8838 2.59322C31.2945 1.38176 28.526 0.501328 25.6315 0C25.276 0.642685 24.8607 1.50711 24.5744 2.19476C21.4975 1.73203 18.4489 1.73203 15.4286 2.19476C15.1423 1.50711 14.7176 0.642685 14.3589 0C11.4613 0.501328 8.68959 1.385 6.10032 2.59963C0.877738 10.4916 -0.538019 18.1876 0.169861 25.7743C3.63375 28.3611 6.99068 29.9325 10.291 30.9607C11.1058 29.8392 11.8326 28.6471 12.4586 27.3907C11.2663 26.9376 10.1242 26.3785 9.04512 25.7294C9.3314 25.5173 9.61143 25.2955 9.88197 25.0674C16.4637 28.1458 23.6148 28.1458 30.1179 25.0674C30.3916 25.2955 30.6716 25.5173 30.9547 25.7294C29.8725 26.3817 28.7273 26.9408 27.5349 27.3939C28.161 28.6471 28.8846 29.8425 29.7026 30.9639C33.0061 29.9356 36.3661 28.3643 39.83 25.7743C40.6606 16.9794 38.4111 9.3541 33.8838 2.59322ZM13.3553 21.1086C11.3795 21.1086 9.75925 19.2641 9.75925 17.018C9.75925 14.7718 11.3449 12.9242 13.3553 12.9242C15.3657 12.9242 16.9859 14.7686 16.9513 17.018C16.9545 19.2641 15.3657 21.1086 13.3553 21.1086ZM26.6446 21.1086C24.6688 21.1086 23.0485 19.2641 23.0485 17.018C23.0485 14.7718 24.6342 12.9242 26.6446 12.9242C28.6549 12.9242 30.2752 14.7686 30.2406 17.018C30.2406 19.2641 28.6549 21.1086 26.6446 21.1086Z"/>
</svg>

<svg width="40" height="31" viewBox="0 0 40 31" fill="currentColor" xmlns="http://www.w3.org/2000/svg"><path d="M33.884 2.593A32.6 32.6 0 0 0 25.63 0a24 24 0 0 0-1.057 2.195 30.3 30.3 0 0 0-9.145 0A24 24 0 0 0 14.359 0 32.5 32.5 0 0 0 6.1 2.6C.878 10.492-.538 18.188.17 25.774c3.464 2.587 6.82 4.159 10.121 5.187a25 25 0 0 0 2.168-3.57 21.3 21.3 0 0 1-3.414-1.662q.43-.318.837-.662c6.582 3.079 13.733 3.079 20.236 0q.412.344.837.662a21.3 21.3 0 0 1-3.42 1.665 25 25 0 0 0 2.168 3.57c3.303-1.028 6.663-2.6 10.127-5.19.83-8.795-1.419-16.42-5.946-23.18M13.355 21.11c-1.976 0-3.596-1.845-3.596-4.091s1.586-4.094 3.596-4.094 3.63 1.845 3.596 4.094c.003 2.246-1.585 4.09-3.596 4.09m13.29 0c-1.976 0-3.596-1.845-3.596-4.091s1.585-4.094 3.596-4.094c2.01 0 3.63 1.845 3.596 4.094 0 2.246-1.586 4.09-3.596 4.09"/></svg>
